panels/wacom/wacom-stylus-3btn-no-eraser.svg

<?xml version="1.0" encoding="UTF-8" standalone="no"?>
<!-- Created with Inkscape (http://www.inkscape.org/) -->

<svg
   id="svg86343"
   version="1.1"
   inkscape:version="1.3 (0e150ed6c4, 2023-07-21)"
   width="190"
   height="32"
   sodipodi:docname="wacom-stylus-3btn-no-eraser.svg"
   viewBox="0 0 190 32"
   xmlns:inkscape="http://www.inkscape.org/namespaces/inkscape"
   xmlns:sodipodi="http://sodipodi.sourceforge.net/DTD/sodipodi-0.dtd"
   xmlns="http://www.w3.org/2000/svg"
   xmlns:svg="http://www.w3.org/2000/svg"
   xmlns:rdf="http://www.w3.org/1999/02/22-rdf-syntax-ns#"
   xmlns:cc="http://creativecommons.org/ns#"
   xmlns:dc="http://purl.org/dc/elements/1.1/">
  <metadata
     id="metadata86349">
    <rdf:RDF>
      <cc:Work
         rdf:about="">
        <dc:format>image/svg+xml</dc:format>
        <dc:type
           rdf:resource="http://purl.org/dc/dcmitype/StillImage" />
      </cc:Work>
    </rdf:RDF>
  </metadata>
  <defs
     id="defs86347" />
  <sodipodi:namedview
     pagecolor="#ffffff"
     bordercolor="#666666"
     borderopacity="1"
     objecttolerance="10"
     gridtolerance="10"
     guidetolerance="10"
     inkscape:pageopacity="0"
     inkscape:pageshadow="2"
     inkscape:window-width="1080"
     inkscape:window-height="651"
     id="namedview86345"
     showgrid="true"
     inkscape:snap-nodes="false"
     inkscape:snap-bbox="true"
     inkscape:zoom="1.9779054"
     inkscape:cx="84.685547"
     inkscape:cy="92.016534"
     inkscape:window-x="0"
     inkscape:window-y="0"
     inkscape:window-maximized="1"
     inkscape:current-layer="svg86343"
     borderlayer="true"
     inkscape:showpageshadow="false"
     inkscape:pagecheckerboard="0"
     fit-margin-top="0"
     fit-margin-left="0"
     fit-margin-right="0"
     fit-margin-bottom="0"
     inkscape:deskcolor="#d1d1d1">
    <inkscape:grid
       type="xygrid"
       id="grid86802"
       empspacing="5"
       visible="true"
       enabled="true"
       snapvisiblegridlinesonly="true"
       originx="-2.9802322e-08"
       originy="-1"
       spacingy="1"
       spacingx="1"
       units="px" />
  </sodipodi:namedview>
  <g
     style="display:inline;stroke:none"
     transform="rotate(90,-55.610814,534.81068)"
     id="g10545">
    <path
       sodipodi:nodetypes="csscsccccccccccccccscsscc"
       inkscape:connector-curvature="0"
       id="stylus"
       class="stylus"
       d="m -581.89025,292.25158 h -1.40625 c -1.9944,0 -3.59375,1.59935 -3.59375,3.59375 v 124.31092 l -2.53125,29.125 c -0.1873,2.15512 1.62589,3.92035 3.75,4.125 l 4.625,10.90625 h 1.53125 v 2.15625 l 3.61536,8.62766 0.92029,0.0104 v 3.00374 c 0,1 1.5581,1 1.5581,0 v -3 l 0.6436,5e-4 3.76265,-8.611 v -2.1875 h 1.53125 l 4.65625,-10.96875 c 1.96694,-0.35188 3.54637,-2.02216 3.40625,-4.0625 l -2.46875,-29.125 V 295.84533 c 0,-1.9944 -1.59935,-3.59375 -3.59375,-3.59375 h -1.40625 z"
       style="color:#000000;display:inline;overflow:visible;visibility:visible;fill:#d3d7cf;fill-opacity:1;fill-rule:nonzero;stroke:none;stroke-width:1px;stroke-linecap:butt;stroke-linejoin:miter;stroke-miterlimit:4;stroke-dasharray:none;stroke-dashoffset:0;stroke-opacity:1;marker:none;enable-background:accumulate" />
    <rect
       style="color:#000000;display:inline;overflow:visible;visibility:visible;fill:#eeeeec;fill-opacity:1;fill-rule:nonzero;stroke:none;stroke-width:1px;stroke-linecap:butt;stroke-linejoin:miter;stroke-miterlimit:4;stroke-dasharray:none;stroke-dashoffset:0;stroke-opacity:1;marker:none;enable-background:accumulate"
       id="button1"
       class="button"
       width="9.0000067"
       height="22"
       x="-578.42151"
       y="365.90625"
       rx="4.5000033"
       ry="4.5000033" />
    <rect
       ry="4.5000033"
       rx="4.5000033"
       y="390.90625"
       x="-578.42151"
       height="12.25"
       width="9.0000067"
       id="button2"
       class="button"
       style="color:#000000;display:inline;overflow:visible;visibility:visible;fill:#eeeeec;fill-opacity:1;fill-rule:nonzero;stroke:none;stroke-width:1px;stroke-linecap:butt;stroke-linejoin:miter;stroke-miterlimit:4;stroke-dasharray:none;stroke-dashoffset:0;stroke-opacity:1;marker:none;enable-background:accumulate" />
    <rect
       ry="4.5"
       rx="4.5"
       y="410.90625"
       x="-578.42151"
       height="9.2042484"
       width="9"
       id="button3"
       class="button"
       style="color:#000000;display:inline;overflow:visible;visibility:visible;fill:#eeeeec;fill-opacity:1;fill-rule:nonzero;stroke:none;stroke-width:1px;stroke-linecap:butt;stroke-linejoin:miter;stroke-miterlimit:4;stroke-dasharray:none;stroke-dashoffset:0;stroke-opacity:1;marker:none;enable-background:accumulate" />
  </g>
</svg>

<?xml version="1.0" encoding="UTF-8" standalone="no"?>
<!-- Created with Inkscape (http://www.inkscape.org/) -->

<svg
   id="svg86343"
   version="1.1"
   inkscape:version="1.3.2 (091e20ef0f, 2023-11-25)"
   width="190"
   height="32"
   sodipodi:docname="wacom-stylus-3btn-no-eraser.svg"
   viewBox="0 0 190 32"
   xmlns:inkscape="http://www.inkscape.org/namespaces/inkscape"
   xmlns:sodipodi="http://sodipodi.sourceforge.net/DTD/sodipodi-0.dtd"
   xmlns="http://www.w3.org/2000/svg"
   xmlns:svg="http://www.w3.org/2000/svg"
   xmlns:rdf="http://www.w3.org/1999/02/22-rdf-syntax-ns#"
   xmlns:cc="http://creativecommons.org/ns#"
   xmlns:dc="http://purl.org/dc/elements/1.1/">
  <metadata
     id="metadata86349">
    <rdf:RDF>
      <cc:Work
         rdf:about="">
        <dc:format>image/svg+xml</dc:format>
        <dc:type
           rdf:resource="http://purl.org/dc/dcmitype/StillImage" />
      </cc:Work>
    </rdf:RDF>
  </metadata>
  <defs
     id="defs86347" />
  <sodipodi:namedview
     pagecolor="#ffffff"
     bordercolor="#666666"
     borderopacity="1"
     objecttolerance="10"
     gridtolerance="10"
     guidetolerance="10"
     inkscape:pageopacity="0"
     inkscape:pageshadow="2"
     inkscape:window-width="1080"
     inkscape:window-height="651"
     id="namedview86345"
     showgrid="true"
     inkscape:snap-nodes="false"
     inkscape:snap-bbox="true"
     inkscape:zoom="12.639724"
     inkscape:cx="78.759631"
     inkscape:cy="24.328063"
     inkscape:window-x="0"
     inkscape:window-y="0"
     inkscape:window-maximized="1"
     inkscape:current-layer="g10545"
     borderlayer="true"
     inkscape:showpageshadow="false"
     inkscape:pagecheckerboard="0"
     fit-margin-top="0"
     fit-margin-left="0"
     fit-margin-right="0"
     fit-margin-bottom="0"
     inkscape:deskcolor="#d1d1d1">
    <inkscape:grid
       type="xygrid"
       id="grid86802"
       empspacing="5"
       visible="true"
       enabled="true"
       snapvisiblegridlinesonly="true"
       originx="-2.9802322e-08"
       originy="-1"
       spacingy="1"
       spacingx="1"
       units="px" />
  </sodipodi:namedview>
  <g
     style="display:inline;stroke:none"
     transform="rotate(90,-55.610814,534.81068)"
     id="g10545">
    <path
       id="stylus"
       style="color:#000000;display:inline;overflow:visible;visibility:visible;fill:#d3d7cf;fill-opacity:1;fill-rule:nonzero;stroke:none;stroke-width:1px;stroke-linecap:butt;stroke-linejoin:miter;stroke-miterlimit:4;stroke-dasharray:none;stroke-dashoffset:0;stroke-opacity:1;marker:none;enable-background:accumulate"
       class="stylus"
       d="M -589.42149 449.2819 C -589.60879 451.43702 -587.7956 453.20225 -585.67149 453.4069 L -581.04649 464.31315 L -579.51524 464.31315 L -579.51524 466.4694 L -575.90001 475.09635 L -574.98009 475.10612 L -574.98009 478.11002 C -574.98009 479.11002 -573.42149 479.11002 -573.42149 478.11002 L -573.42149 475.11002 L -572.77696 475.11198 L -569.01524 466.50065 L -569.01524 464.31315 L -567.48399 464.31315 L -562.82774 453.3444 C -560.86081 452.99252 -559.28137 451.32224 -559.42149 449.2819 L -561.89024 420.1569 L -561.89024 295.8444 C -561.89024 293.85 -563.4896 292.25065 -565.48399 292.25065 L -566.89024 292.25065 L -581.89024 292.25065 L -583.29649 292.25065 C -585.29089 292.25065 -586.89024 293.85 -586.89024 295.8444 L -586.89024 420.1569 L -589.42149 449.2819 z M -578.42149 415.61002 L -578.42149 415.4069 C -578.42149 412.9139 -576.41449 410.9069 -573.92149 410.9069 C -571.42851 410.9069 -569.42149 412.9139 -569.42149 415.4069 L -569.42149 415.61002 C -569.42149 418.10302 -571.42851 420.11002 -573.92149 420.11002 C -576.41449 420.11002 -578.42149 418.10302 -578.42149 415.61002 z M -578.42149 398.6569 L -578.42149 395.4069 C -578.42149 392.9139 -576.41449 390.9069 -573.92149 390.9069 C -571.4285 390.9069 -569.42149 392.9139 -569.42149 395.4069 L -569.42149 398.6569 C -569.42149 401.14989 -571.4285 403.1569 -573.92149 403.1569 C -576.41449 403.1569 -578.42149 401.14989 -578.42149 398.6569 z M -578.42149 383.4069 L -578.42149 370.4069 C -578.42149 367.9139 -576.41449 365.9069 -573.92149 365.9069 C -571.4285 365.9069 -569.42149 367.9139 -569.42149 370.4069 L -569.42149 383.4069 C -569.42149 385.89989 -571.4285 387.9069 -573.92149 387.9069 C -576.41449 387.9069 -578.42149 385.89989 -578.42149 383.4069 z " />
  </g>
</svg>
